src/assets/protocols/etherfi.svg

<svg xmlns="http://www.w3.org/2000/svg" fill="none" viewBox="0 0 1038 1039"><g clip-path="url(#a)"><path fill="url(#b)" d="m1024.1 576.135-38.749-151.057c-1.11-4.441-4.689-7.896-9.132-9.008l-149.698-36.901a16.5 16.5 0 0 0-3.457-.369c-3.577-.37-7.28.74-9.995 3.455L560.444 634.88l-33.443-130.57c-1.112-4.444-4.691-7.899-9.133-9.009l-128.596-31.717 252.501-252.501c1.482-1.481 2.346-3.332 2.963-5.184 1.11-2.467 1.481-5.306.74-8.021L606.725 46.822c-1.112-4.443-4.691-7.899-9.132-9.01l-149.7-36.9c-2.962-.74-5.925-.246-8.516.988h-.123c-.741.37-1.358.864-2.098 1.357-.617.494-1.481.74-1.975 1.358L4.228 435.323s-.74 1.233-1.234 1.85c-2.715 3.21-3.703 7.406-2.469 11.478l41.837 145.997c1.234 4.196 4.443 7.404 8.515 8.515l140.196 40.231 40.233 140.074c1.234 4.196 4.442 7.404 8.514 8.516l140.691 40.354 40.354 140.691c1.236 4.196 4.444 7.403 8.516 8.515l146.613 42.086c1.112.37 2.346.49 3.455.49.248 0 .496-.12.865-.12h.247c3.208 0 6.418-1.24 8.885-3.7l431.074-431.084c1.48-1.481 2.35-3.331 2.97-5.182 1.11-2.469 1.48-5.307.74-8.022zm-193.261 167.47L799.37 620.811l69.727-69.605 119.833 34.431-157.967 158.092zM586.362 988.084 554.891 865.29l126.127-126.127 119.833 34.432zm97.247-286.81-30.112-104.9 108.233 26.657-78.121 78.122zm95.274-59.978 27.645 107.74-105.271-30.237 77.626-77.625zm3.579-38.873-122.671-30.236 157.598-157.598 34.06 118.847zm-153.153.122 34.061 118.847-125.51 125.51-122.67-30.236zm333.705-164.26 31.47 122.793-118.969-34.184-34.062-118.599zM396.678 798.399l-31.472-122.793 45.417-45.417 119.833 34.432zm16.536-206.097-30.112-104.9 108.231 26.657-78.119 78.12zm122.919 47.884L430.862 609.95l77.626-77.626 27.645 107.738zm-143.034-27.645-44.8 44.8-122.67-30.236 133.407-133.409zM251.915 222.93l34.062 118.847-126.621 126.62-122.671-30.236zM438.884 35.961l34.063 118.846-67.878 67.877-122.671-30.236zm14.562 327.905-31.469-122.671 68.616-68.617 119.833 34.309zm-147.23-42.206-30.112-104.9 108.231 26.657-78.119 78.119zm95.274-59.979 27.645 107.739-105.147-30.236 77.626-77.626zm-97.741 97.742 119.833 34.31-215.601 215.6-31.471-122.671zM584.51 59.903l31.469 122.795-118.969-34.185-34.06-118.599zM30.514 462.472l108.233 26.657-78.12 78.122-30.113-104.902zm47.76 122.548 77.627-77.626 27.644 107.74-105.147-30.235zm175.122 184.996-34.061-118.6 121.56 29.991 31.47 122.793zm155.622 70.961 108.233 26.657-78.119 78.119-30.114-104.9zm47.76 122.548 77.626-77.626 27.645 107.738-105.271-30.236z"/></g><defs><linearGradient id="b" x1="70.993" x2="958.202" y1="673.013" y2="350.045" gradientUnits="userSpaceOnUse"><stop stop-color="#29BCFA"/><stop offset=".43" stop-color="#6464E4"/><stop offset="1" stop-color="#B45AFA"/></linearGradient><clipPath id="a"><path fill="#fff" d="M0 .564h1038v1038H0z"/></clipPath></defs></svg>

<svg width="1038" height="1039" viewBox="0 0 1038 1039" fill="none" xmlns="http://www.w3.org/2000/svg">
<g clip-path="url(#clip0_9939_345)">
<path d="M1024.1 576.135L985.351 425.078C984.241 420.637 980.662 417.182 976.219 416.07L826.521 379.169C825.41 378.923 824.176 378.8 823.064 378.8C819.487 378.43 815.784 379.54 813.069 382.255L560.444 634.88L527.001 504.31C525.889 499.866 522.31 496.411 517.868 495.301L389.272 463.584L641.773 211.083C643.255 209.602 644.119 207.751 644.736 205.899C645.846 203.432 646.217 200.593 645.476 197.878L606.725 46.8215C605.613 42.3787 602.034 38.9231 597.593 37.8125L447.893 0.912361C444.931 0.17189 441.968 0.665537 439.377 1.89966H439.254C438.513 2.26989 437.896 2.76356 437.156 3.25718C436.539 3.75083 435.675 3.99766 435.181 4.61473L4.22765 435.323C4.22765 435.323 3.4872 436.556 2.99357 437.173C0.278502 440.383 -0.708801 444.579 0.525317 448.651L42.362 594.648C43.596 598.844 46.8048 602.052 50.8774 603.163L191.073 643.394L231.306 783.468C232.54 787.664 235.748 790.872 239.82 791.984L380.511 832.338L420.865 973.029C422.101 977.225 425.309 980.432 429.381 981.544L575.994 1023.63C577.106 1024 578.34 1024.12 579.449 1024.12C579.697 1024.12 579.945 1024 580.314 1024C580.314 1024 580.438 1024 580.561 1024C583.769 1024 586.979 1022.76 589.446 1020.3L1020.52 589.216C1022 587.735 1022.87 585.885 1023.49 584.034C1024.6 581.565 1024.97 578.727 1024.23 576.012L1024.1 576.135ZM830.839 743.605L799.37 620.811L869.097 551.206L988.93 585.637L830.963 743.729L830.839 743.605ZM586.362 988.084L554.891 865.29L681.018 739.163L800.851 773.595L586.362 988.084ZM683.609 701.274L653.497 596.374L761.73 623.031L683.609 701.153V701.274ZM778.883 641.296L806.528 749.036L701.257 718.799L778.883 641.174V641.296ZM782.462 602.423L659.791 572.187L817.389 414.589L851.449 533.436L782.462 602.423ZM629.309 602.545L663.37 721.392L537.86 846.902L415.19 816.666L629.309 602.545ZM963.014 438.285L994.484 561.078L875.515 526.894L841.453 408.295L963.014 438.285ZM396.678 798.399L365.206 675.606L410.623 630.189L530.456 664.621L396.678 798.399ZM413.214 592.302L383.102 487.402L491.333 514.059L413.214 592.179V592.302ZM536.133 640.186L430.862 609.95L508.488 532.324L536.133 640.062V640.186ZM393.099 612.541L348.299 657.341L225.629 627.105L359.036 493.696L393.099 612.541ZM251.915 222.93L285.977 341.777L159.356 468.397L36.6849 438.161L251.915 222.93ZM438.884 35.9613L472.947 154.807L405.069 222.684L282.398 192.448L438.884 35.9613ZM453.446 363.866L421.977 241.195L490.593 172.578L610.426 206.887L453.446 363.866ZM306.216 321.66L276.104 216.76L384.335 243.417L306.216 321.536V321.66ZM401.49 261.681L429.135 369.42L323.988 339.184L401.614 261.558L401.49 261.681ZM303.749 359.423L423.582 393.733L207.981 609.333L176.51 486.662L303.749 359.423ZM584.51 59.9033L615.979 182.698L497.01 148.513L462.95 29.9141L584.51 59.9033ZM30.5144 462.472L138.747 489.129L60.6268 567.251L30.5144 462.349V462.472ZM78.2748 585.02L155.901 507.394L183.545 615.134L78.3981 584.899L78.2748 585.02ZM253.396 770.016L219.335 651.416L340.895 681.407L372.365 804.2L253.396 770.016ZM409.018 840.977L517.251 867.634L439.132 945.753L409.018 840.853V840.977ZM456.778 963.525L534.404 885.899L562.049 993.637L456.778 963.401V963.525Z" fill="url(#paint0_linear_9939_345)"/>
</g>
<defs>
<linearGradient id="paint0_linear_9939_345" x1="70.9934" y1="673.013" x2="958.202" y2="350.045" gradientUnits="userSpaceOnUse">
<stop stop-color="#29BCFA"/>
<stop offset="0.43" stop-color="#6464E4"/>
<stop offset="1" stop-color="#B45AFA"/>
</linearGradient>
<clipPath id="clip0_9939_345">
<rect width="1038" height="1038" fill="white" transform="translate(0 0.564453)"/>
</clipPath>
</defs>
</svg>
